X: 3097
T: Mr EAGERS
Q:"Strathspey."
R: Strathspey.
%R:strathspey
B: James Kerr "Merry Melodies" v.3 p.12 #97
Z: 2016 John Chambers <jc:trillian.mit.edu>
M: C
L: 1/8
K: A
ue |\
c<A E<A vc>vAue>uc | d<B F<B d>Bf>d |\
c<A E<A c>Ae>c | (3def (3efg a<A A ::\
e |\
a>ec<e c<ea>g |
(3fdf (3fba g<ee>g |\
[1 a>ec<e c<ea>g | (3fdf (3bag a2 a :|\
[2 (3aga (3bag (3agf (3edc | (3fdf (3bag a3 |]

%%sep 1 1 500
%%sep 1 1 500

